pkgs/clan-app/ui/icons/machine.svg

<svg xmlns="http://www.w3.org/2000/svg" width="48" height="48" fill="currentColor"><path d="M38.666 5v34.667h.001V5H43v39H4V5zm-26 30.334h4.333V31h-4.333zm17.333 0h4.334V31h-4.334zm-8.666-8.667h4.333v-4.333h-4.333zM12.666 18h4.333v-4.333h-4.333zm17.333 0h4.334v-4.333h-4.334z"/></svg>

<svg xmlns="http://www.w3.org/2000/svg" width="48" height="48" viewBox="0 0 48 48" fill="currentColor">
    <path d="M38.666 5V39.667H38.667V5H43V44H4V5H38.666ZM12.666 35.334H16.999V31H12.666V35.334ZM29.999 35.334H34.333V31H29.999V35.334ZM21.333 26.667H25.666V22.334H21.333V26.667ZM12.666 18H16.999V13.667H12.666V18ZM29.999 18H34.333V13.667H29.999V18Z"/>
</svg>
